icons/WheelChair_2.svg

<svg width="24" height="24" viewBox="0 0 24 24" fill="none" xmlns="http://www.w3.org/2000/svg">
<path fill-rule="evenodd" clip-rule="evenodd" d="M18,6.75c0,0.9665 -0.7835,1.75 -1.75,1.75c-0.9665,0 -1.75,-0.7835 -1.75,-1.75c0,-0.9665 0.7835,-1.75 1.75,-1.75c0.9665,0 1.75,0.7835 1.75,1.75zM9.11867,11.7517c-0.7382,-0.0207 -1.46903,0.1514 -2.12047,0.4993c-0.65144,0.3478 -1.201,0.8594 -1.59452,1.4843c-0.39352,0.6249 -0.61742,1.3415 -0.64963,2.0793c-0.03222,0.7378 0.12837,1.4712 0.46593,2.1281c0.33756,0.6568 0.84044,1.2143 1.45909,1.6176c0.61864,0.4033 1.33169,0.6384 2.06888,0.6822c0.73719,0.0438 1.47305,-0.1052 2.13515,-0.4324c0.662,-0.3272 1.2274,-0.8213 1.6403,-1.4335c0.2316,-0.3434 0.6978,-0.434 1.0412,-0.2024c0.3434,0.2316 0.434,0.6978 0.2024,1.0412c-0.5587,0.8283 -1.3236,1.4967 -2.2193,1.9394c-0.8957,0.4427 -1.89134,0.6443 -2.88871,0.5851c-0.99737,-0.0593 -1.96209,-0.3774 -2.79907,-0.923c-0.83699,-0.5456 -1.51736,-1.2999 -1.97406,-2.1886c-0.4567,-0.8886 -0.67397,-1.8809 -0.63039,-2.8791c0.04358,-0.9982 0.34651,-1.9678 0.87892,-2.8132c0.53241,-0.8455 1.27593,-1.5376 2.15729,-2.0082c0.88136,-0.4706 1.87013,-0.7035 2.86887,-0.6756c0.41405,0.0116 0.74033,0.3566 0.72877,0.7707c-0.01157,0.414 -0.3566,0.7403 -0.77065,0.7288zM6.1819,8.72761c-0.40184,0.10046 -0.80904,-0.14386 -0.90951,-0.54571c-0.10046,-0.40184 0.14386,-0.80905 0.54571,-0.90951l2.92709,-0.73177c0.88834,-0.22208 1.82911,-0.05912 2.59101,0.4488l3.0987,2.06581c0.6342,0.42277 0.7456,1.30977 0.2358,1.87627l-2.9867,3.3185h3.0757c0.3797,0 0.7389,0.1726 0.9761,0.4691l3.8499,4.8124c0.2587,0.3234 0.2063,0.7954 -0.1172,1.0542c-0.3234,0.2587 -0.7954,0.2063 -1.0542,-0.1172l-3.7748,-4.7185h-3.5168c-1.0822,0 -1.6531,-1.2818 -0.9291,-2.0862l3.1687,-3.5209l-2.8581,-1.90541c-0.4103,-0.27349 -0.91687,-0.36124 -1.3952,-0.24166z" fill="#002B51"/>
</svg>

<svg width="24" height="24" viewBox="0 0 24 24" fill="none" xmlns="http://www.w3.org/2000/svg">
<path fill-rule="evenodd" clip-rule="evenodd" d="M18 6.75C18 7.7165 17.2165 8.5 16.25 8.5C15.2835 8.5 14.5 7.7165 14.5 6.75C14.5 5.7835 15.2835 5 16.25 5C17.2165 5 18 5.7835 18 6.75ZM9.11867 11.7517C8.38047 11.731 7.64964 11.9031 6.9982 12.251C6.34676 12.5988 5.7972 13.1104 5.40368 13.7353C5.01016 14.3602 4.78626 15.0768 4.75405 15.8146C4.72183 16.5524 4.88242 17.2858 5.21998 17.9427C5.55754 18.5995 6.06042 19.157 6.67907 19.5603C7.29771 19.9636 8.01076 20.1987 8.74795 20.2425C9.48514 20.2863 10.221 20.1373 10.8831 19.8101C11.5451 19.4829 12.1105 18.9888 12.5234 18.3766C12.755 18.0332 13.2212 17.9426 13.5646 18.1742C13.908 18.4058 13.9986 18.872 13.767 19.2154C13.2083 20.0437 12.4434 20.7121 11.5477 21.1548C10.652 21.5975 9.65636 21.7991 8.65899 21.7399C7.66162 21.6806 6.6969 21.3625 5.85992 20.8169C5.02293 20.2713 4.34256 19.517 3.88586 18.6283C3.42916 17.7397 3.21189 16.7474 3.25547 15.7492C3.29905 14.751 3.60198 13.7814 4.13439 12.936C4.6668 12.0905 5.41032 11.3984 6.29168 10.9278C7.17304 10.4572 8.16181 10.2243 9.16055 10.2522C9.5746 10.2638 9.90088 10.6088 9.88932 11.0229C9.87775 11.4369 9.53272 11.7632 9.11867 11.7517ZM9.109 7.99583C9.58733 7.87625 10.0939 7.964 10.5042 8.23749L13.3623 10.1429L10.1936 13.6638C9.4696 14.4682 10.0405 15.75 11.1227 15.75H14.6395L18.4143 20.4685C18.6731 20.792 19.1451 20.8444 19.4685 20.5857C19.792 20.3269 19.8444 19.8549 19.5857 19.5315L15.7358 14.7191C15.4986 14.4226 15.1394 14.25 14.7597 14.25H11.684L14.6707 10.9315C15.1805 10.365 15.0691 9.478 14.4349 9.05523L11.3362 6.98942C10.5743 6.4815 9.63353 6.31854 8.74519 6.54062L5.8181 7.27239C5.41625 7.37285 5.17193 7.78006 5.27239 8.1819C5.37286 8.58375 5.78006 8.82807 6.1819 8.72761L9.109 7.99583Z" fill="#002B51"/>
</svg>
